X:1
T: Stilly Night
C:
R:Jig
Q:180
K:Bb
M:6/8
L:1/16
|:d6 d4c2|B4G2 G4G2|F4F2 B4d2|c2d2e2 d6|
d6 d4c2|B4G2 G4B2|F4B2 d4B2|c6B6:|
|:F4B2 B4B2|c4B2 B4B2|c4B2 e4d2|c6B6|
F2B2B2 B4B2|c4B2 B4B2|f4d2 d4B2|c2d2e2 B6:|
